images/clock.svg

<svg height="65" viewBox="0 0 64 65" width="64" xmlns="http://www.w3.org/2000/svg"><g fill="#731982" transform=""><path d="m31.5151515 0c-17.4053504 0-31.5151515 14.1098011-31.5151515 31.5151515s14.1098011 31.5151515 31.5151515 31.5151515v-2.6262216c-15.9549148 0-28.88892991-12.9340151-28.88892991-28.8889299s12.93401511-28.88892991 28.88892991-28.88892991 28.8889299 12.93401511 28.8889299 28.88892991h2.6262216c0-17.4053504-14.1098011-31.5151515-31.5151515-31.5151515z"/><path d="m32.0076377 6.89393939c-13.8699258 0-25.11369831 11.24374481-25.11369831 25.11363641 0 13.8698915 11.24377251 25.1136363 25.11369831 25.1136363v-2.643495c-12.4099466 0-22.47007285-10.0602253-22.47007285-22.4700174 0-12.4097922 10.06012625-22.47014137 22.47007285-22.47014137 12.4099467 0 22.4700729 10.06010137 22.4700729 22.47001747h2.6435015c.0001239-13.8698916-11.2436486-25.11363641-25.1135744-25.11363641z"/><path d="m61.7170127 44.6875h-3.3104321c-.1388631-.4021875-.2975462-.7967578-.4753107-1.1821875l2.341345-2.415791c.5126117-.5287598.5126117-1.3859473 0-1.914834l-3.7148339-3.8309375c-.5127348-.5286328-1.3439436-.5286328-1.8568015 0l-2.3425761 2.415791c-.3737485-.1834473-.7563607-.3469629-1.1463591-.490166v-3.415166c0-.7478809-.5879523-1.354209-1.3131672-1.354209h-5.2525458c-.725215 0-1.3131672.6063281-1.3131672 1.354209v3.415166c-.3898754.1426953-.7726107.305957-1.1463592.4888965l-2.342453-2.4145215c-.5127347-.5286328-1.3439436-.5286328-1.8568014 0l-3.714834 3.8309375c-.5126116.5287598-.5126116 1.3859473 0 1.914834l2.3425761 2.415791c-.1778876.3854297-.3364476.78-.4753107 1.1821875h-3.3116632c-.7252149 0-1.3131672.6063281-1.3131672 1.354209v5.416709c0 .7478808.5879523 1.354209 1.3131672 1.354209h3.3116632c.1383707.4020605.2966845.7967578.4740796 1.1821875l-2.341345 2.415664c-.5126116.5287598-.5126116 1.3859473 0 1.914834l3.714834 3.8309375c.5127347.5286328 1.3439436.5286328 1.8568014 0l2.3425761-2.415791c.3737486.1834473.7563607.3469629 1.1463592.490166v3.415166c0 .7478809.5879522 1.354209 1.3131672 1.354209h5.2525458c.7252149 0 1.3131672-.6063281 1.3131672-1.354209v-3.4138965c.3899985-.1432031.7726106-.3068457 1.1463591-.490166l2.3425761 2.4145215c.5127348.5286328 1.3439436.5286328 1.8568015 0l3.7148339-3.8309375c.5126117-.5287598.5126117-1.3859473 0-1.914834l-2.342576-2.415791c.1778875-.3854297.3364475-.78.4753106-1.1821875h3.3116632c.725215 0 1.3131672-.6063281 1.3131672-1.354209v-5.416709c-.0001231-.7477539-.5880753-1.354082-1.3132903-1.354082zm-1.312921 5.4153125h-2.9690604c-.5986624.000127-1.1214918.4178027-1.2710651 1.015625-.2143268.8555371-.5436342 1.6760352-.97832 2.4375-.3049325.5321875-.2217132 1.2097363.2022624 1.646709l2.101043 2.166709-1.8568015 1.914834-2.1010429-2.166709c-.4237294-.4372266-1.0807439-.5230469-1.5968025-.208584-.7383873.4482715-1.5340186.7878711-2.3636271 1.0088965-.5797042.154375-.9847216.6934179-.9848447 1.310791v3.063125h-2.6262113l.0013542-3.060459c-.0001231-.617373-.4051405-1.156543-.9848447-1.310791-.8296085-.2210254-1.6252398-.560625-2.3636271-1.0088965-.5160586-.3144629-1.1730731-.2286426-1.5968025.208584l-2.1010429 2.166709-1.8568015-1.914834 2.101043-2.166709c.4239756-.4369727.507195-1.1145215.2022624-1.646709-.4346858-.7614648-.7639932-1.5819629-.97832-2.4375-.1496964-.5978222-.6724027-1.015498-1.2710651-1.015625h-2.9702914v-2.708291h2.9689372c.5986625-.000127 1.1214919-.4178027 1.2710651-1.015625.2143268-.8555371.5436343-1.6760352.9783201-2.4375.3049325-.5321875.2217131-1.2097363-.2022625-1.646709l-2.1010429-2.166709 1.8568014-1.914834 2.101043 2.166709c.4237294.4372266 1.0807438.5230469 1.5968024.208584.7383873-.4482715 1.5340187-.7878711 2.3636272-1.0088965.5797041-.154375.9847215-.6934179.9848446-1.310791v-3.063125h2.6249803v3.0617285c.0001231.6173731.4051404 1.156543.9848446 1.310791.8296085.2210254 1.6252399.560625 2.3636272 1.0088965.5160585.3144629 1.173073.2286426 1.5968024-.208584l2.101043-2.1667089 1.8568014 1.9148339-2.1010429 2.166709c-.4239756.4369727-.507195 1.1145215-.2022625 1.646709.4346858.7614649.7639932 1.5819629.9783201 2.4375.1496963.5978223.6724026 1.0154981 1.2710651 1.015625h2.9702914z"/><path d="m47.7651515 42.3484848c-2.9915001 0-5.4166667 2.4251666-5.4166667 5.4166667s2.4250397 5.4166667 5.4166667 5.4166667c2.9915001 0 5.4166667-2.4250397 5.4166667-5.4166667 0-2.9915001-2.4251666-5.4166667-5.4166667-5.4166667zm0 8.1249366c-1.49575 0-2.7082698-1.2125199-2.7082698-2.7082699s1.2125198-2.7082698 2.7082698-2.7082698 2.7082699 1.2125198 2.7082699 2.7082698-1.2125199 2.7082699-2.7082699 2.7082699z"/><path d="m30.530303 7.878788h2.954545v7.878788h-2.954545z"/><path d="m7.878788 30.530303h7.878788v2.954545h-7.878788z"/><path d="m15.757576 14.772727h2.954545v7.878788h-2.954545z" transform="matrix(.70710678 -.70710678 .70710678 .70710678 -8.183498 17.667531)"/><path d="m12.80303 43.333333h7.878788v2.954545h-7.878788z" transform="matrix(.70710678 -.70710678 .70710678 .70710678 -26.782141 24.963404)"/><path d="m30.8417773 21.6666667v10.3559337l-6.2205652 6.4258085 1.8687218 1.930379 6.6077399-6.8257578c.2479157-.2559675.3871747-.6031874.3871747-.9651255v-10.9212379z"/></g></svg>

<?xml version="1.0" encoding="UTF-8"?>
<svg width="64px" height="65px" viewBox="0 0 64 65" version="1.1" xmlns="http://www.w3.org/2000/svg" xmlns:xlink="http://www.w3.org/1999/xlink">
    <!-- Generator: Sketch 48.2 (47327) - http://www.bohemiancoding.com/sketch -->
    <title>008-clock</title>
    <desc>Created with Sketch.</desc>
    <defs></defs>
    <g id="Desktop-HD-Copy-25" stroke="none" stroke-width="1" fill="none" fill-rule="evenodd" transform="translate(-250.000000, -1479.000000)">
        <g id="Group-6" transform="translate(250.000000, 1479.000000)" fill="#731982" fill-rule="nonzero">
            <g id="008-clock">
                <path d="M31.5151515,0 C14.1098011,0 0,14.1098011 0,31.5151515 C0,48.9205019 14.1098011,63.030303 31.5151515,63.030303 L31.5151515,60.4040814 C15.5602367,60.4040814 2.62622159,47.4700663 2.62622159,31.5151515 C2.62622159,15.5602367 15.5602367,2.62622159 31.5151515,2.62622159 C47.4700663,2.62622159 60.4040814,15.5602367 60.4040814,31.5151515 L63.030303,31.5151515 C63.030303,14.1098011 48.9205019,0 31.5151515,0 Z" id="Shape"></path>
                <path d="M32.0076377,6.89393939 C18.1377119,6.89393939 6.89393939,18.1376842 6.89393939,32.0075758 C6.89393939,45.8774673 18.1377119,57.1212121 32.0076377,57.1212121 L32.0076377,54.4777171 C19.5976911,54.4777171 9.53756485,44.4174918 9.53756485,32.0076997 C9.53756485,19.5979075 19.5976911,9.53755833 32.0076377,9.53755833 C44.4175844,9.53755833 54.4777106,19.5976597 54.4777106,32.0075758 L57.1212121,32.0075758 C57.121336,18.1376842 45.8775635,6.89393939 32.0076377,6.89393939 Z" id="Shape"></path>
                <path d="M61.7170127,44.6875 L58.4065806,44.6875 C58.2677175,44.2853125 58.1090344,43.8907422 57.9312699,43.5053125 L60.2726149,41.0895215 C60.7852266,40.5607617 60.7852266,39.7035742 60.2726149,39.1746875 L56.557781,35.34375 C56.0450462,34.8151172 55.2138374,34.8151172 54.7009795,35.34375 L52.3584034,37.759541 C51.9846549,37.5760937 51.6020427,37.4125781 51.2120443,37.269375 L51.2120443,33.854209 C51.2120443,33.1063281 50.624092,32.5 49.8988771,32.5 L44.6463313,32.5 C43.9211163,32.5 43.3331641,33.1063281 43.3331641,33.854209 L43.3331641,37.269375 C42.9432887,37.4120703 42.5605534,37.575332 42.1868049,37.7582715 L39.8443519,35.34375 C39.3316172,34.8151172 38.5004083,34.8151172 37.9875505,35.34375 L34.2727165,39.1746875 C33.7601049,39.7034473 33.7601049,40.5606348 34.2727165,41.0895215 L36.6152926,43.5053125 C36.437405,43.8907422 36.278845,44.2853125 36.1399819,44.6875 L32.8283187,44.6875 C32.1031038,44.6875 31.5151515,45.2938281 31.5151515,46.041709 L31.5151515,51.458418 C31.5151515,52.2062988 32.1031038,52.812627 32.8283187,52.812627 L36.1399819,52.812627 C36.2783526,53.2146875 36.4366664,53.6093848 36.6140615,53.9948145 L34.2727165,56.4104785 C33.7601049,56.9392383 33.7601049,57.7964258 34.2727165,58.3253125 L37.9875505,62.15625 C38.5002852,62.6848828 39.3314941,62.6848828 39.8443519,62.15625 L42.186928,59.740459 C42.5606766,59.9239063 42.9432887,60.0874219 43.3332872,60.230625 L43.3332872,63.645791 C43.3332872,64.3936719 43.9212394,65 44.6464544,65 L49.8990002,65 C50.6242151,65 51.2121674,64.3936719 51.2121674,63.645791 L51.2121674,60.2318945 C51.6021659,60.0886914 51.984778,59.9250488 52.3585265,59.7417285 L54.7011026,62.15625 C55.2138374,62.6848828 56.0450462,62.6848828 56.5579041,62.15625 L60.272738,58.3253125 C60.7853497,57.7965527 60.7853497,56.9393652 60.272738,56.4104785 L57.930162,53.9946875 C58.1080495,53.6092578 58.2666095,53.2146875 58.4054726,52.8125 L61.7171358,52.8125 C62.4423508,52.8125 63.030303,52.2061719 63.030303,51.458291 L63.030303,46.041582 C63.0301799,45.2938281 62.4422277,44.6875 61.7170127,44.6875 Z M60.4040917,50.1028125 L57.4350313,50.1028125 C56.8363689,50.1029395 56.3135395,50.5206152 56.1639662,51.1184375 C55.9496394,51.9739746 55.620332,52.7944727 55.1856462,53.5559375 C54.8807137,54.088125 54.963933,54.7656738 55.3879086,55.2026465 L57.4889516,57.3693555 L55.6321501,59.2841895 L53.5311072,57.1174805 C53.1073778,56.6802539 52.4503633,56.5944336 51.9343047,56.9088965 C51.1959174,57.357168 50.4002861,57.6967676 49.5706776,57.917793 C48.9909734,58.072168 48.585956,58.6112109 48.5858329,59.228584 L48.5858329,62.291709 L45.9596216,62.291709 L45.9609758,59.23125 C45.9608527,58.613877 45.5558353,58.074707 44.9761311,57.920459 C44.1465226,57.6994336 43.3508913,57.359834 42.612504,56.9115625 C42.0964454,56.5970996 41.4394309,56.6829199 41.0157015,57.1201465 L38.9146586,59.2868555 L37.0578571,57.3720215 L39.1589001,55.2053125 C39.5828757,54.7683398 39.6660951,54.090791 39.3611625,53.5586035 C38.9264767,52.7971387 38.5971693,51.9766406 38.3828425,51.1211035 C38.2331461,50.5232813 37.7104398,50.1056055 37.1117774,50.1054785 L34.141486,50.1054785 L34.141486,47.3971875 L37.1104232,47.3971875 C37.7090857,47.3970605 38.2319151,46.9793848 38.3814883,46.3815625 C38.5958151,45.5260254 38.9251226,44.7055273 39.3598084,43.9440625 C39.6647409,43.411875 39.5815215,42.7343262 39.1575459,42.2973535 L37.056503,40.1306445 L38.9133044,38.2158105 L41.0143474,40.3825195 C41.4380768,40.8197461 42.0950912,40.9055664 42.6111498,40.5911035 C43.3495371,40.142832 44.1451685,39.8032324 44.974777,39.582207 C45.5544811,39.427832 45.9594985,38.8887891 45.9596216,38.271416 L45.9596216,35.208291 L48.5846019,35.208291 L48.5846019,38.2700195 C48.584725,38.8873926 48.9897423,39.4265625 49.5694465,39.5808105 C50.399055,39.8018359 51.1946864,40.1414355 51.9330737,40.589707 C52.4491322,40.9041699 53.1061467,40.8183496 53.5298761,40.381123 L55.6309191,38.2144141 L57.4877205,40.129248 L55.3866776,42.295957 C54.962702,42.7329297 54.8794826,43.4104785 55.1844151,43.942666 C55.6191009,44.7041309 55.9484083,45.5246289 56.1627352,46.380166 C56.3124315,46.9779883 56.8351378,47.3956641 57.4338003,47.395791 L60.4040917,47.395791 L60.4040917,50.1028125 Z" id="Shape"></path>
                <path d="M47.7651515,42.3484848 C44.7736514,42.3484848 42.3484848,44.7736514 42.3484848,47.7651515 C42.3484848,50.7566516 44.7735245,53.1818182 47.7651515,53.1818182 C50.7566516,53.1818182 53.1818182,50.7567785 53.1818182,47.7651515 C53.1818182,44.7736514 50.7566516,42.3484848 47.7651515,42.3484848 Z M47.7651515,50.4734214 C46.2694015,50.4734214 45.0568817,49.2609015 45.0568817,47.7651515 C45.0568817,46.2694015 46.2694015,45.0568817 47.7651515,45.0568817 C49.2609015,45.0568817 50.4734214,46.2694015 50.4734214,47.7651515 C50.4734214,49.2609015 49.2609015,50.4734214 47.7651515,50.4734214 Z" id="Shape"></path>
                <rect id="Rectangle-path" x="30.530303" y="7.87878788" width="2.95454545" height="7.87878788"></rect>
                <rect id="Rectangle-path" x="7.87878788" y="30.530303" width="7.87878788" height="2.95454545"></rect>
                <rect id="Rectangle-path" transform="translate(17.234848, 18.712121) rotate(-45.000000) translate(-17.234848, -18.712121) " x="15.7575758" y="14.7727273" width="2.95454545" height="7.87878788"></rect>
                <rect id="Rectangle-path" transform="translate(16.742424, 44.810606) rotate(-45.000000) translate(-16.742424, -44.810606) " x="12.8030303" y="43.3333333" width="7.87878788" height="2.95454545"></rect>
                <path d="M30.8417773,21.6666667 L30.8417773,32.0226004 L24.6212121,38.4484089 L26.4899339,40.3787879 L33.0976738,33.5530301 C33.3455895,33.2970626 33.4848485,32.9498427 33.4848485,32.5879046 L33.4848485,21.6666667 L30.8417773,21.6666667 Z" id="Shape"></path>
            </g>
        </g>
    </g>
</svg>
